X: 31530
T: Paddy's Rambles Through The Park
R: waltz
M: 3/4
K: Amixolydian
|:A/B/A/G/|E2A4|G2 B2 {BcB}AB|G6-|
G4A{BA}G|E2A2 <AB/|=c4 {cdc}BA|^GE3E2|E4:|
cd|e2 ed c/d/e/c/|{c}d2 {e}dc B/c/d/B/|c2 {d}cB A/B/c/A/|
B4 EF|G2Bedc|{c}d2e fe^d|e2 E2 ^G2|A4A/B/A/^G/|
A2 a2 a2|A2 g2 g2|{BcB}AB G4-|G4 A/B/A/^G/|
A2 a2 a2|A2 g2 g2|{c}BA^G E3|E2 E4|
cd|e2 ed c/d/e/c/|{c}d2 {e}dc B/c/d/B/|c2 {d}cB A/B/c/A/|
B4 EF|G2B edc|{c}d3e f{gf}^d|e2 E2 ^G2|A4||

